X: 581
T: the Mason's Daughter
%R: reel, march
Z: 2018 John Chambers <jc:trillian.mit.edu>
B: John Treat - "Gamut for the Fifes", 1779, p.58 #1
F: https://archive.org/details/GamutFortheFifes
N: There may be a pickup note to the 2nd strain, but it's not legible.
M: 2/4
L: 1/16
K: D
% - - - - - - - - - - - - - - - - - - - - - - - - -
A2 |\
d2e2 d2D2 | F2A2 A2dc | B2A2 G2F2 | E2e2 e2ef |\
g2f2 e2d2 | cdec A2A2 | BcBc dede | f2d2 d2 :|
|: z2 |\
f2g2 a3f | e2f2 g3e | d2ef g2f2 | edcB A3A |\
dedc B3B | efed c3e | a3g f2ed | Adce d2 :|
% - - - - - - - - - - - - - - - - - - - - - - - - -
